packages/foundations/assets/icons/functional/images/notification/warning_triangle_filled.svg

<svg xmlns="http://www.w3.org/2000/svg" width="32" height="32" fill="none"><path fill="#1A1C1F" fill-rule="evenodd" d="M15.219 2.609c-.881.239-1.511.749-1.981 1.604-.226.412-10.563 20.198-10.827 20.724-.308.614-.402.977-.4 1.544.002.845.279 1.515.875 2.113.248.25.469.411.747.545.789.379-.139.353 12.425.354 11.123 0 11.346-.002 11.751-.105.561-.144.899-.336 1.317-.748.584-.576.86-1.266.863-2.16.002-.553-.092-.93-.373-1.49-.451-.9-10.767-20.624-10.95-20.937-.385-.657-1.018-1.175-1.702-1.393-.509-.162-1.256-.183-1.745-.051m1.261 6.453c.108.054.254.203.347.352l.16.258v5.124c0 2.818-.018 5.188-.04 5.267-.098.349-.56.681-.947.681s-.849-.332-.947-.681c-.022-.079-.04-2.447-.04-5.263V9.68l.145-.246c.289-.492.801-.636 1.322-.372m-.048 13.72a1.394 1.394 0 0 1 .874 1.754c-.173.521-.756.957-1.279.957-.505 0-1.045-.348-1.282-.826-.148-.301-.142-.882.012-1.174.324-.608 1.059-.921 1.675-.711"/></svg>

<svg width="32" height="32" viewBox="0 0 32 32" fill="none" xmlns="http://www.w3.org/2000/svg"><path d="M15.219 2.609 C 14.338 2.848,13.708 3.358,13.238 4.213 C 13.012 4.625,2.675 24.411,2.411 24.937 C 2.103 25.551,2.009 25.914,2.011 26.481 C 2.013 27.326,2.290 27.996,2.886 28.594 C 3.134 28.844,3.355 29.005,3.633 29.139 C 4.422 29.518,3.494 29.492,16.058 29.493 C 27.181 29.493,27.404 29.491,27.809 29.388 C 28.370 29.244,28.708 29.052,29.126 28.640 C 29.710 28.064,29.986 27.374,29.989 26.480 C 29.991 25.927,29.897 25.550,29.616 24.990 C 29.165 24.090,18.849 4.366,18.666 4.053 C 18.281 3.396,17.648 2.878,16.964 2.660 C 16.455 2.498,15.708 2.477,15.219 2.609 M16.480 9.062 C 16.588 9.116,16.734 9.265,16.827 9.414 L 16.987 9.672 16.987 14.796 C 16.987 17.614,16.969 19.984,16.947 20.063 C 16.849 20.412,16.387 20.744,16.000 20.744 C 15.613 20.744,15.151 20.412,15.053 20.063 C 15.031 19.984,15.013 17.616,15.013 14.800 L 15.013 9.680 15.158 9.434 C 15.447 8.942,15.959 8.798,16.480 9.062 M16.432 22.782 C 17.154 23.028,17.546 23.814,17.306 24.536 C 17.133 25.057,16.550 25.493,16.027 25.493 C 15.522 25.493,14.982 25.145,14.745 24.667 C 14.597 24.366,14.603 23.785,14.757 23.493 C 15.081 22.885,15.816 22.572,16.432 22.782 " fill="#1A1C1F" stroke="none" fill-rule="evenodd"></path></svg>
